assets/logos/icons/lock.svg

<svg height="24" viewBox="0 0 24 24" width="24" xmlns="http://www.w3.org/2000/svg"><path d="m11 12h2v4h-2zm-5-2v9h12v-9zm0-2c0-3.3137085 2.6862915-6 6-6s6 2.6862915 6 6c1.1045695 0 2 .8954305 2 2v9c0 1.1045695-.8954305 2-2 2h-12c-1.1045695 0-2-.8954305-2-2v-9c0-1.1045695.8954305-2 2-2zm2 0h8c0-2.209139-1.790861-4-4-4s-4 1.790861-4 4z" fill="#492f5c" fill-rule="evenodd"/></svg>

<svg xmlns="http://www.w3.org/2000/svg" xmlns:xlink="http://www.w3.org/1999/xlink" width="24" height="24" viewBox="0 0 24 24">
  <defs>
    <path id="lock-a" d="M11,12 L13,12 L13,16 L11,16 L11,12 Z M6,10 L6,19 L18,19 L18,10 L6,10 Z M6,8 C6,4.6862915 8.6862915,2 12,2 C15.3137085,2 18,4.6862915 18,8 C19.1045695,8 20,8.8954305 20,10 L20,19 C20,20.1045695 19.1045695,21 18,21 L6,21 C4.8954305,21 4,20.1045695 4,19 L4,10 C4,8.8954305 4.8954305,8 6,8 Z M8,8 L16,8 C16,5.790861 14.209139,4 12,4 C9.790861,4 8,5.790861 8,8 Z"/>
  </defs>
  <use fill="#492F5C" fill-rule="evenodd" xlink:href="#lock-a"/>
</svg>
